dist/img/main/cards.svg

<svg min-width="48" min-height="48" viewBox="0 0 48 48" fill="none" xmlns="http://www.w3.org/2000/svg">
<g clip-path="url(#clip0_68_8691)">
<path d="M10.6176 22.022H20.8966L30.5043 20.0744L36.7781 16.2416L35.5757 12.938L22.2426 16.0314L10.6176 22.022Z" fill="#EAF4FC"/>
<path d="M24 15.6236V21.3928L30.5039 20.0744L36.7778 16.2416L35.5754 12.938L24 15.6236Z" fill="#EAF4FC"/>
<path d="M34.7737 10.7356C34.2756 9.36723 32.7625 8.66165 31.3941 9.15975L11.5725 16.3742C10.2041 16.8723 9.4986 18.3853 9.99664 19.7537L10.3621 20.7578V22.0218H10.6171L35.5752 12.9379L34.7737 10.7356Z" fill="#FFC24D"/>
<path d="M31.3943 9.15973L24 11.8511V17.1509L35.5754 12.9379L34.7738 10.7357C34.2758 9.36721 32.7627 8.66168 31.3943 9.15973Z" fill="#FFC04A"/>
<path d="M24 22.0217H38.8816L36.7778 16.2412L24 20.892V22.0217Z" fill="#FFC04A"/>
<path d="M36.3047 39H11.6953C10.2414 39 9.05859 37.8172 9.05859 36.3633V22.3008C9.05859 20.8469 10.2414 19.6641 11.6953 19.6641H36.3047C37.7586 19.6641 38.9414 20.8469 38.9414 22.3008V36.3633C38.9414 37.8172 37.7586 39 36.3047 39Z" fill="#084D5B"/>
<path d="M39 36.4091V22.5909C39 21.1623 38.7625 20 38.4706 20H36V39H38.4706C38.7625 39 39 37.8378 39 36.4091Z" fill="#06353F"/>
<path d="M19.3125 28.4531H13.4531C12.9677 28.4531 12.5742 28.0596 12.5742 27.5742V24.0586C12.5742 23.5732 12.9677 23.1797 13.4531 23.1797H19.3125C19.7979 23.1797 20.1914 23.5732 20.1914 24.0586V27.5742C20.1914 28.0596 19.7979 28.4531 19.3125 28.4531Z" fill="#FFC24D"/>
<path d="M15.7969 31.9688H13.4531C12.9677 31.9688 12.5742 31.5752 12.5742 31.0898C12.5742 30.6045 12.9677 30.2109 13.4531 30.2109H15.7969C16.2823 30.2109 16.6758 30.6045 16.6758 31.0898C16.6758 31.5752 16.2823 31.9688 15.7969 31.9688Z" fill="#EAF4FC"/>
<path d="M19.3125 35.4844H13.4531C12.9677 35.4844 12.5742 35.0909 12.5742 34.6055C12.5742 34.1201 12.9677 33.7266 13.4531 33.7266H19.3125C19.7979 33.7266 20.1914 34.1201 20.1914 34.6055C20.1914 35.0909 19.7979 35.4844 19.3125 35.4844Z" fill="#EAF4FC"/>
<path d="M21.6562 31.9688H19.3125C18.8271 31.9688 18.4336 31.5752 18.4336 31.0898C18.4336 30.6045 18.8271 30.2109 19.3125 30.2109H21.6562C22.1416 30.2109 22.5352 30.6045 22.5352 31.0898C22.5352 31.5752 22.1416 31.9688 21.6562 31.9688Z" fill="#EAF4FC"/>
<path d="M27.5156 31.9688H25.1719C24.6865 31.9688 24.293 31.5752 24.293 31.0898C24.293 30.6045 24.6865 30.2109 25.1719 30.2109H27.5156C28.001 30.2109 28.3945 30.6045 28.3945 31.0898C28.3945 31.5752 28.001 31.9688 27.5156 31.9688Z" fill="#EAF4FC"/>
<path d="M33.375 31.9688H31.0312C30.5459 31.9688 30.1523 31.5752 30.1523 31.0898C30.1523 30.6045 30.5459 30.2109 31.0312 30.2109H33.375C33.8604 30.2109 34.2539 30.6045 34.2539 31.0898C34.2539 31.5752 33.8604 31.9688 33.375 31.9688Z" fill="#EAF4FC"/>
</g>
<defs>
<clipPath id="clip0_68_8691">
<rect width="30" height="30" fill="white" transform="translate(9 9)"/>
</clipPath>
</defs>
</svg>

<svg viewBox="0 0 48 48" fill="none" xmlns="http://www.w3.org/2000/svg"><g clip-path="url(#clip0_68_8691)"><path d="M10.618 22.022h10.279l9.607-1.948 6.274-3.832-1.202-3.304-13.333 3.093-11.625 5.991z" fill="#EAF4FC"/><path d="M24 15.624v5.769l6.504-1.319 6.274-3.832-1.203-3.304L24 15.624z" fill="#EAF4FC"/><path d="M34.774 10.736a2.637 2.637 0 00-3.38-1.576l-19.822 7.214a2.637 2.637 0 00-1.575 3.38l.365 1.004v1.264h.255l24.958-9.084-.801-2.202z" fill="#FFC24D"/><path d="M31.394 9.16L24 11.85v5.3l11.575-4.213-.801-2.202a2.637 2.637 0 00-3.38-1.576zM24 22.022h14.882l-2.104-5.78L24 20.891v1.13z" fill="#FFC04A"/><path d="M36.305 39h-24.61a2.64 2.64 0 01-2.636-2.637V22.301a2.64 2.64 0 012.636-2.637h24.61a2.64 2.64 0 012.636 2.637v14.062A2.64 2.64 0 0136.305 39z" fill="#084D5B"/><path d="M39 36.41V22.59c0-1.428-.237-2.59-.53-2.59H36v19h2.47c.293 0 .53-1.162.53-2.59z" fill="#06353F"/><path d="M19.313 28.453h-5.86a.879.879 0 01-.879-.879V24.06a.88.88 0 01.88-.88h5.858a.88.88 0 01.88.88v3.515a.879.879 0 01-.88.88z" fill="#FFC24D"/><path d="M15.797 31.969h-2.344a.879.879 0 010-1.758h2.344a.879.879 0 010 1.758zm3.516 3.515h-5.86a.879.879 0 010-1.757h5.86a.879.879 0 010 1.757zm2.343-3.515h-2.343a.879.879 0 010-1.758h2.343a.88.88 0 010 1.758zm5.86 0h-2.344a.879.879 0 010-1.758h2.344a.879.879 0 010 1.758zm5.859 0h-2.344a.88.88 0 010-1.758h2.344a.879.879 0 010 1.758z" fill="#EAF4FC"/></g><defs><clipPath id="clip0_68_8691"><path fill="#fff" transform="translate(9 9)" d="M0 0h30v30H0z"/></clipPath></defs></svg>
